kora/panel/24/fcitx-anthy-panel.svg

<svg xmlns="http://www.w3.org/2000/svg" width="24" height="24" version="1.1">
 <defs>
  <style id="current-color-scheme" type="text/css">
   .ColorScheme-Text { color:#dfdfdf; } .ColorScheme-Highlight { color:#4285f4; } .ColorScheme-NeutralText { color:#ff9800; } .ColorScheme-PositiveText { color:#4caf50; } .ColorScheme-NegativeText { color:#f44336; }
  </style>
 </defs>
 <g transform="matrix(1,0,0,1,4,4)">
  <path class="ColorScheme-Text" d="M 2,0 C 0.892,0 0,0.892 0,2 V 14 C 0,15.108 0.892,16 2,16 H 14 C 15.108,16 16,15.108 16,14 V 2 C 16,0.892 15.108,0 14,0 Z M 6.334,2 H 7.6113 C 7.5373,2.5556 7.4078,3.1248 7.2227,3.9766 9.7297,3.875 11.609,3.7399 13,3.5762 V 4.8555 C 11.832,4.9885 9.9046,4.9217 6.9453,5.0547 6.649,6.2398 6.2588,8.2716 5.7773,9.3457 L 5.8887,9.4004 C 7.259,8.4745 8.2245,8.0117 9.1875,8.0117 10.41,8.0117 11.355,8.3078 12.021,8.9004 12.688,9.493 13,10.252 13,11.178 13,12.252 12.596,12.667 11.744,13.223 10.929,13.741 9.7058,14 8.0762,14 7.054,14 6.1191,14.006 5,13.945 V 12.498 C 5.9443,12.689 6.8385,12.723 7.9648,12.723 9.15,12.723 10.04,12.574 10.633,12.277 11.262,11.944 11.576,11.844 11.576,11.178 11.576,10.585 11.372,10.122 10.965,9.7891 10.557,9.4187 9.9653,9.2344 9.1875,9.2344 7.669,9.2344 6.4447,9.8811 5.1113,11.178 L 4.1113,10.4 C 4.7039,9.4378 5.2216,6.9747 5.666,5.0117 H 3 V 3.9805 C 3.9591,3.9759 4.9321,3.9653 5.9453,3.9336 Z" style="fill:currentColor"/>
 </g>
</svg>

<svg xmlns="http://www.w3.org/2000/svg" width="100%" height="100%" viewBox="-4 -4 24 24">
 <defs>
  <style id="current-color-scheme" type="text/css">
   .ColorScheme-Text { color:#dfdfdf; } .ColorScheme-Highlight { color:#4285f4; } .ColorScheme-NeutralText { color:#ff9800; } .ColorScheme-PositiveText { color:#4caf50; } .ColorScheme-NegativeText { color:#f44336; }
  </style>
 </defs>
 <path style="fill:currentColor" class="ColorScheme-Text" d="m6.334 2h1.277c-.074.556-.203 1.125-.388 1.977 2.507-.102 4.386-.237 5.777-.401v1.279c-1.168.133-3.095.067-6.055.2-.296 1.185-.686 3.217-1.168 4.291l.112.054c1.37-.925 2.336-1.388 3.298-1.388 1.223 0 2.168.296 2.834.888.667.593.979 1.352.979 2.278 0 1.074-.404 1.489-1.256 2.045-.815.518-2.038.777-3.668.777-1.022 0-1.957.006-3.076-.055v-1.447c.944.191 1.838.225 2.965.225 1.185 0 2.075-.149 2.668-.446.629-.333.943-.433.943-1.099 0-.593-.204-1.056-.611-1.389-.408-.37-1-.555-1.777-.555-1.519 0-2.743.647-4.077 1.944l-1-.778c.593-.962 1.111-3.425 1.555-5.388h-2.666v-1.032c.959-.004 1.932-.015 2.945-.046z" fill="#dfdfdf"/>
</svg>
